Yaru++/status/symbolic/location-services-disabled-symbolic.svg

<svg height="16" width="16" xmlns="http://www.w3.org/2000/svg"><g fill="#808080"><path d="m8 1a4 4 0 0 0 -3.046875 1.4160156l.7089844.7070313a3 3 0 0 1 2.3378906-1.1230469 3 3 0 0 1 3 3 3 3 0 0 1 -1.1230469 2.3398438l1.1445309 1.1445312c.310033-.866717.586941-1.6628849.792969-2.28125a4 4 0 0 0 .185547-1.203125 4 4 0 0 0 -4-4zm-3.6054688 5.8085938c.7776366 2.2944695 2.1207688 6.0201602 3.6054688 8.9609372.5823074-1.153389 1.1301491-2.433263 1.6484375-3.707031z" opacity=".5"/><path d="m18.985729-3.8326868-1.061 1.061 14 14.0000008 1.062-1.062z" transform="translate(-17.424729 4.271686)"/></g></svg>

<?xml version="1.0" encoding="UTF-8" standalone="no"?>
<svg
   xmlns:dc="http://purl.org/dc/elements/1.1/"
   xmlns:cc="http://creativecommons.org/ns#"
   xmlns:rdf="http://www.w3.org/1999/02/22-rdf-syntax-ns#"
   xmlns:svg="http://www.w3.org/2000/svg"
   xmlns="http://www.w3.org/2000/svg"
   xmlns:sodipodi="http://sodipodi.sourceforge.net/DTD/sodipodi-0.dtd"
   xmlns:inkscape="http://www.inkscape.org/namespaces/inkscape"
   width="16"
   height="16"
   version="1.1"
   id="svg4"
   sodipodi:docname="location-services-disabled-symbolic.svg"
   inkscape:version="0.92.4 (5da689c313, 2019-01-14)">
  <metadata
     id="metadata10">
    <rdf:RDF>
      <cc:Work
         rdf:about="">
        <dc:format>image/svg+xml</dc:format>
        <dc:type
           rdf:resource="http://purl.org/dc/dcmitype/StillImage" />
        <dc:title></dc:title>
      </cc:Work>
    </rdf:RDF>
  </metadata>
  <defs
     id="defs8" />
  <sodipodi:namedview
     pagecolor="#ffffff"
     bordercolor="#666666"
     borderopacity="1"
     objecttolerance="10"
     gridtolerance="10"
     guidetolerance="10"
     inkscape:pageopacity="0"
     inkscape:pageshadow="2"
     inkscape:window-width="1920"
     inkscape:window-height="1016"
     id="namedview6"
     showgrid="false"
     inkscape:zoom="14.75"
     inkscape:cx="8"
     inkscape:cy="8"
     inkscape:window-x="0"
     inkscape:window-y="27"
     inkscape:window-maximized="1"
     inkscape:current-layer="svg4" />
  <path
     style="opacity:0.5;fill:#808080;fill-opacity:1"
     d="M 8 1 A 4 4 0 0 0 4.953125 2.4160156 L 5.6621094 3.1230469 A 3 3 0 0 1 8 2 A 3 3 0 0 1 11 5 A 3 3 0 0 1 9.8769531 7.3398438 L 11.021484 8.484375 C 11.331517 7.617658 11.608425 6.8214901 11.814453 6.203125 A 4 4 0 0 0 12 5 A 4 4 0 0 0 8 1 z M 4.3945312 6.8085938 C 5.1721678 9.1030633 6.5153 12.828754 8 15.769531 C 8.5823074 14.616142 9.1301491 13.336268 9.6484375 12.0625 L 4.3945312 6.8085938 z "
     id="path2" />
  <g
     id="g821"
     style="fill:#808080;fill-opacity:1"
     transform="translate(-17.424729,4.2716864)">
    <path
       id="path817"
       d="m 18.985729,-3.8326868 -1.061,1.061 14,14.0000008 1.062,-1.062 z"
       inkscape:connector-curvature="0"
       style="fill:#808080;fill-opacity:1" />
  </g>
</svg>
